img/icones/contato/telefone-icone.svg

<svg width="32" height="32" viewBox="0 0 32 32" fill="none" xmlns="http://www.w3.org/2000/svg">
<path d="M26.68 20.5067C25.04 20.5067 23.4533 20.24 21.9733 19.76C21.5067 19.6 20.9867 19.72 20.6267 20.08L18.5333 22.7067C14.76 20.9067 11.2267 17.5067 9.34667 13.6L11.9467 11.3867C12.3067 11.0133 12.4133 10.4933 12.2667 10.0267C11.7733 8.54667 11.52 6.96 11.52 5.32C11.52 4.6 10.92 4 10.2 4H5.58667C4.86667 4 4 4.32 4 5.32C4 17.7067 14.3067 28 26.68 28C27.6267 28 28 27.16 28 26.4267V21.8267C28 21.1067 27.4 20.5067 26.68 20.5067Z" fill="url(#paint0_linear_434_551)"/>
<defs>
<linearGradient id="paint0_linear_434_551" x1="16" y1="4.48" x2="21.0659" y2="26.3463" gradientUnits="userSpaceOnUse">
<stop stop-color="#345EC2"/>
<stop offset="1" stop-color="#113896"/>
</linearGradient>
</defs>
</svg>

<svg width="32" height="32" fill="none" xmlns="http://www.w3.org/2000/svg"><path d="M26.68 20.507c-1.64 0-3.227-.267-4.707-.747a1.303 1.303 0 0 0-1.346.32l-2.094 2.627c-3.773-1.8-7.306-5.2-9.186-9.107l2.6-2.213c.36-.374.466-.894.32-1.36a14.869 14.869 0 0 1-.747-4.707c0-.72-.6-1.32-1.32-1.32H5.587C4.867 4 4 4.32 4 5.32 4 17.707 14.307 28 26.68 28c.947 0 1.32-.84 1.32-1.573v-4.6c0-.72-.6-1.32-1.32-1.32Z" fill="url(#a)"/><defs><linearGradient id="a" x1="16" y1="4.48" x2="21.066" y2="26.346" gradientUnits="userSpaceOnUse"><stop stop-color="#345EC2"/><stop offset="1" stop-color="#113896"/></linearGradient></defs></svg>
